build/fonts/cisco/networkmanagement.svg

<?xml version="1.0" encoding="UTF-8" standalone="no"?>
<svg
   xmlns:dc="http://purl.org/dc/elements/1.1/"
   xmlns:cc="http://creativecommons.org/ns#"
   xmlns:rdf="http://www.w3.org/1999/02/22-rdf-syntax-ns#"
   xmlns:svg="http://www.w3.org/2000/svg"
   xmlns="http://www.w3.org/2000/svg"
   viewBox="0 0 36.25 35"
   height="35"
   width="36.25"
   xml:space="preserve"
   version="1.1"
   id="svg2"><metadata
     id="metadata8"><rdf:RDF><cc:Work
         rdf:about=""><dc:format>image/svg+xml</dc:format><dc:type
           rdf:resource="http://purl.org/dc/dcmitype/StillImage" /></cc:Work></rdf:RDF></metadata><defs
     id="defs6"><clipPath
       id="clipPath18"
       clipPathUnits="userSpaceOnUse"><path
         id="path20"
         d="M 0,10 0,275 290,275 290,10 0,10 Z" /></clipPath></defs><g
     transform="matrix(1.25,0,0,-1.25,0,35)"
     id="g10"><g
       transform="scale(0.1,0.1)"
       id="g12"><g
         id="g14"><g
           clip-path="url(#clipPath18)"
           id="g16"><path
             id="path22"
             style="fill:#026c9b;fill-opacity:1;fill-rule:nonzero;stroke:none"
             d="m 7.14844,14.2188 221.332,0 0,209.531 -221.332,0 0,-209.531 z" /><path
             id="path24"
             style="fill:none;stroke:#ffffff;stroke-width:4;stroke-linecap:butt;stroke-linejoin:miter;stroke-miterlimit:4;stroke-dasharray:none;stroke-opacity:1"
             d="m 7.14844,14.2188 221.332,0 0,209.531 -221.332,0 0,-209.531 z" /><path
             id="path26"
             style="fill:#026c9b;fill-opacity:1;fill-rule:nonzero;stroke:none"
             d="m 228.48,223.75 57.461,47.301 -201.0621,0 -77.73046,-47.301 221.33156,0" /><path
             id="path28"
             style="fill:none;stroke:#ffffff;stroke-width:4;stroke-linecap:butt;stroke-linejoin:miter;stroke-miterlimit:4;stroke-dasharray:none;stroke-opacity:1"
             d="m 228.48,223.75 57.461,47.301 -201.0621,0 -77.73046,-47.301 221.33156,0 z" /><path
             id="path30"
             style="fill:#026c9b;fill-opacity:1;fill-rule:nonzero;stroke:none"
             d="m 285.941,61.5586 0,209.4924 -57.461,-47.301 0,-209.5312 57.461,47.3398" /><path
             id="path32"
             style="fill:none;stroke:#ffffff;stroke-width:4;stroke-linecap:butt;stroke-linejoin:miter;stroke-miterlimit:4;stroke-dasharray:none;stroke-opacity:1"
             d="m 285.941,61.5586 0,209.4924 -57.461,-47.301 0,-209.5312 57.461,47.3398 z" /><path
             id="path34"
             style="fill:#ffffff;fill-opacity:1;fill-rule:nonzero;stroke:none"
             d="m 30.1211,24.6914 c 5.2695,0 9.5273,4.2578 9.5273,9.5703 0,5.2266 -4.2578,9.4883 -9.5273,9.4883 -5.2813,0 -9.5703,-4.2617 -9.5703,-9.4883 0,-5.3125 4.289,-9.5703 9.5703,-9.5703" /><path
             id="path36"
             style="fill:none;stroke:#000000;stroke-width:2;stroke-linecap:butt;stroke-linejoin:miter;stroke-miterlimit:4;stroke-dasharray:none;stroke-opacity:1"
             d="m 30.1211,24.6914 c 5.2695,0 9.5273,4.2578 9.5273,9.5703 0,5.2266 -4.2578,9.4883 -9.5273,9.4883 -5.2813,0 -9.5703,-4.2617 -9.5703,-9.4883 0,-5.3125 4.289,-9.5703 9.5703,-9.5703 z" /><path
             id="path38"
             style="fill:#ffffff;fill-opacity:1;fill-rule:nonzero;stroke:none"
             d="M 21.9102,44.4102 40.5898,26.1719 93.2813,80.1211 74.6484,98.3594 21.9102,44.4102" /><path
             id="path40"
             style="fill:none;stroke:#000000;stroke-width:2;stroke-linecap:butt;stroke-linejoin:miter;stroke-miterlimit:4;stroke-dasharray:none;stroke-opacity:1"
             d="M 21.9102,44.4102 40.5898,26.1719 93.2813,80.1211 74.6484,98.3594 21.9102,44.4102 Z" /><path
             id="path42"
             style="fill:#ffffff;fill-opacity:1;fill-rule:nonzero;stroke:none"
             d="m 67.1914,138.09 c 0,-39.4611 32.0703,-71.5314 71.5196,-71.5314 39.41,0 71.519,32.0703 71.519,71.5314 0,39.449 -32.109,71.519 -71.519,71.519 -39.4493,0 -71.5196,-32.07 -71.5196,-71.519 m 10,0 c 0,33.941 27.5786,61.519 61.5196,61.519 33.91,0 61.519,-27.578 61.519,-61.519 0,-33.91 -27.609,-61.5314 -61.519,-61.5314 -33.941,0 -61.5196,27.6214 -61.5196,61.5314" /><path
             id="path44"
             style="fill:none;stroke:#000000;stroke-width:2;stroke-linecap:butt;stroke-linejoin:miter;stroke-miterlimit:4;stroke-dasharray:none;stroke-opacity:1"
             d="m 67.1914,138.09 c 0,-39.4611 32.0703,-71.5314 71.5196,-71.5314 39.41,0 71.519,32.0703 71.519,71.5314 0,39.449 -32.109,71.519 -71.519,71.519 -39.4493,0 -71.5196,-32.07 -71.5196,-71.519 m 10,0 c 0,33.941 27.5786,61.519 61.5196,61.519 33.91,0 61.519,-27.578 61.519,-61.519 0,-33.91 -27.609,-61.5314 -61.519,-61.5314 -33.941,0 -61.5196,27.6214 -61.5196,61.5314 z" /><path
             id="path46"
             style="fill:#ffffff;fill-opacity:1;fill-rule:nonzero;stroke:none"
             d="m 58.7891,133.98 c 0,-39.4487 32.1093,-71.5581 71.5199,-71.5581 39.461,0 71.531,32.1094 71.531,71.5581 0,39.418 -32.07,71.489 -71.531,71.489 -39.4106,0 -71.5199,-32.071 -71.5199,-71.489 m 10,0 c 0,33.911 27.6211,61.489 61.5199,61.489 33.91,0 61.531,-27.578 61.531,-61.489 0,-33.941 -27.621,-61.5581 -61.531,-61.5581 -33.8988,0 -61.5199,27.6171 -61.5199,61.5581" /><path
             id="path48"
             style="fill:none;stroke:#000000;stroke-width:2;stroke-linecap:butt;stroke-linejoin:miter;stroke-miterlimit:4;stroke-dasharray:none;stroke-opacity:1"
             d="m 58.7891,133.98 c 0,-39.4487 32.1093,-71.5581 71.5199,-71.5581 39.461,0 71.531,32.1094 71.531,71.5581 0,39.418 -32.07,71.489 -71.531,71.489 -39.4106,0 -71.5199,-32.071 -71.5199,-71.489 m 10,0 c 0,33.911 27.6211,61.489 61.5199,61.489 33.91,0 61.531,-27.578 61.531,-61.489 0,-33.941 -27.621,-61.5581 -61.531,-61.5581 -33.8988,0 -61.5199,27.6171 -61.5199,61.5581 z" /><path
             id="path50"
             style="fill:none;stroke:#ffffff;stroke-width:13.11299992;stroke-linecap:butt;stroke-linejoin:miter;stroke-miterlimit:4;stroke-dasharray:none;stroke-opacity:1"
             d="m 106.25,108.949 53.5195,0 0,53.5508 -53.5195,0 0,-53.5508 z" /></g></g></g></g></svg>

<svg xmlns="http://www.w3.org/2000/svg" viewBox="0 0 36.25 35" height="35" width="36.25"><defs><clipPath id="a"><path d="M0 10v265h290V10H0z"/></clipPath></defs><g clip-path="url(#a)" transform="matrix(.13 0 0 -.13 0 35)"><path d="M7.148 14.219H228.48v209.53H7.148V14.22z" fill="#026c9b"/><path d="M7.148 14.219H228.48v209.53H7.148V14.22z" fill="none" stroke="#fff" stroke-width="4"/><path d="M228.48 223.75l57.461 47.301H84.879L7.149 223.75H228.48" fill="#026c9b"/><path d="M228.48 223.75l57.461 47.301H84.879L7.149 223.75H228.48z" fill="none" stroke="#fff" stroke-width="4"/><path d="M285.941 61.559V271.05L228.48 223.75V14.219l57.461 47.34" fill="#026c9b"/><path d="M285.941 61.559V271.05L228.48 223.75V14.219l57.461 47.34z" fill="none" stroke="#fff" stroke-width="4"/><path d="M30.121 24.691c5.27 0 9.527 4.258 9.527 9.57 0 5.227-4.257 9.489-9.527 9.489-5.281 0-9.57-4.262-9.57-9.488a9.556 9.556 0 0 1 9.57-9.57" fill="#fff"/><path d="M30.121 24.691c5.27 0 9.527 4.258 9.527 9.57 0 5.227-4.257 9.489-9.527 9.489-5.281 0-9.57-4.262-9.57-9.488a9.556 9.556 0 0 1 9.57-9.57z" fill="none" stroke="#000" stroke-width="2"/><path d="M21.91 44.41l18.68-18.238 52.691 53.95-18.633 18.237L21.91 44.41" fill="#fff"/><path d="M21.91 44.41l18.68-18.238 52.691 53.95-18.633 18.237L21.91 44.41z" fill="none" stroke="#000" stroke-width="2"/><path d="M67.191 138.09c0-39.461 32.07-71.531 71.52-71.531 39.41 0 71.519 32.07 71.519 71.531 0 39.449-32.109 71.519-71.519 71.519-39.45 0-71.52-32.07-71.52-71.519m10 0c0 33.941 27.579 61.519 61.52 61.519 33.91 0 61.519-27.578 61.519-61.519 0-33.91-27.609-61.531-61.519-61.531-33.941 0-61.52 27.621-61.52 61.531" fill="#fff"/><path d="M67.191 138.09c0-39.461 32.07-71.531 71.52-71.531 39.41 0 71.519 32.07 71.519 71.531 0 39.449-32.109 71.519-71.519 71.519-39.45 0-71.52-32.07-71.52-71.519m10 0c0 33.941 27.579 61.519 61.52 61.519 33.91 0 61.519-27.578 61.519-61.519 0-33.91-27.609-61.531-61.519-61.531-33.941 0-61.52 27.621-61.52 61.531z" fill="none" stroke="#000" stroke-width="2"/><path d="M58.79 133.98c0-39.449 32.108-71.558 71.519-71.558 39.461 0 71.531 32.11 71.531 71.558 0 39.418-32.07 71.489-71.531 71.489-39.41 0-71.52-32.071-71.52-71.489m10 0c0 33.911 27.621 61.489 61.52 61.489 33.91 0 61.531-27.578 61.531-61.489 0-33.941-27.621-61.558-61.531-61.558-33.899 0-61.52 27.617-61.52 61.558" fill="#fff"/><path d="M58.79 133.98c0-39.449 32.108-71.558 71.519-71.558 39.461 0 71.531 32.11 71.531 71.558 0 39.418-32.07 71.489-71.531 71.489-39.41 0-71.52-32.071-71.52-71.489m10 0c0 33.911 27.621 61.489 61.52 61.489 33.91 0 61.531-27.578 61.531-61.489 0-33.941-27.621-61.558-61.531-61.558-33.899 0-61.52 27.617-61.52 61.558z" fill="none" stroke="#000" stroke-width="2"/><path d="M106.25 108.949h53.52v53.55h-53.52v-53.55z" fill="none" stroke="#fff" stroke-width="13.113"/></g></svg>
